X: 20133
T: Jimmy's Trip To Clonmel
R: reel
M: 4/4
K: Edorian
|:ga|b2 bg ab ag|e3d eage|dB B2 (3efg dB|A3g gedB|
DGGF G2BG|dGBG eg g2|dedB g3B|ABGE G2:|
|:GE|D2 DE G3B|A3B AGEG|BG ~G2 DEGB|gedBA2 ga|
bgag e2dB|gB eB AedB|dedB g3B|ABGE G2:|

